X:38
T:Missionary
T:6M
S:John Moore's Book 3
Z:Transcribed by Edmund Spriggs 05/2021
%%VWML: Moore1-4495-p29-0
F:https://www.vwml.org/record/Moore3/4495/p29
N:Bar 10 of the first part is missing a quaver. The first note should be a dotted crotchet.
M:C
L:1/4
V:1 clef=treble
V:2 clef=bass
K:Bb
[V:1]B2Bc|dcBA|B2c2|dedc|B4|]
[V:2]B,,2D,F,|B,E,F,F,|G,2A,2|B,E,F,F,|B,,4|]
[V:1]z2|z4|z4|z2c2|
[V:2]B,,2|B,F,CB,|(D>C E/D/) (C/B,/)|F,4-|
[V:1]dced|(fd/ g/f/) (e/d/)|d2c2|c2c>c|
[V:2]F,4-|F,4-|F,4|F,2 F,>F,|
[V:1](dc/d/)ef|gf(ed)|(fe)(dc)|B4|]
[V:2]D_A,G,F,|E,D,(C,B,,)|E,2F,2|B,,4|]

